assets/Folded hands/Dark/Flat/folded_hands_flat_dark.svg

<svg width="32" height="32" viewBox="0 0 32 32" fill="none" xmlns="http://www.w3.org/2000/svg">
<path fill-rule="evenodd" clip-rule="evenodd" d="M8.35938 15.4375C9.03794 14.849 10.4264 13.6406 10.5517 13.5156C10.7083 13.3594 11.0528 12.7812 11.0528 12.1562V4.39062C11.0528 3.59375 11.4944 2.01562 13.1981 2.01562C15.0864 2.01562 15.4403 3.28102 15.4922 4.12646C15.5441 3.28102 15.898 2.01562 17.7863 2.01562C19.49 2.01562 19.9316 3.59375 19.9316 4.39062V12.1562C19.9316 12.7812 20.2761 13.3594 20.4327 13.5156C20.558 13.6406 21.9464 14.849 22.625 15.4375L16.7058 23.5625C15.8414 23.2711 15.5452 22.4952 15.4922 22.0707C15.4392 22.4952 15.143 23.2711 14.2786 23.5625L8.35938 15.4375Z" fill="#422426"/>
<path d="M10.5517 13.5156C10.4264 13.6406 9.03794 14.849 8.35938 15.4375L14.2786 23.5625C15.2056 23.25 15.4791 22.3802 15.5 21.9844V7.39062C15.5 6.57812 15.2964 5.01562 13.1981 5.01562C11.4944 5.01562 11.0528 6.59375 11.0528 7.39062V12.1562C11.0528 12.7812 10.7083 13.3594 10.5517 13.5156Z" fill="#573739"/>
<path fill-rule="evenodd" clip-rule="evenodd" d="M11.0469 7C11.0469 6.74503 11.1452 6.22598 11.4614 5.78432C11.7583 5.36965 12.2608 5 13.1496 5C14.283 5 14.7844 5.39695 15.0321 5.7738C15.305 6.18914 15.3438 6.691 15.3438 7H15.4844V4.7708C14.9846 4.30731 14.2339 4 13.1496 4C12.2165 4 11.5309 4.31125 11.0469 4.75253V7Z" fill="#341A1C"/>
<path d="M20.4327 13.5156C20.558 13.6406 21.9464 14.849 22.625 15.4375L16.7058 23.5625C15.7788 23.25 15.5053 22.3802 15.4844 21.9844V7.42188C15.4844 6.60938 15.6879 5.04688 17.7863 5.04688C19.49 5.04688 19.9316 6.625 19.9316 7.42188V12.1562C19.9316 12.7812 20.2761 13.3594 20.4327 13.5156Z" fill="#573739"/>
<path fill-rule="evenodd" clip-rule="evenodd" d="M15.9844 23.1052C15.6614 22.7635 15.5263 22.3442 15.4922 22.0707C15.4575 22.3485 15.3186 22.7769 14.9844 23.1215V2.69379C15.3548 3.12496 15.465 3.68337 15.4922 4.12644C15.519 3.68966 15.6264 3.14079 15.9844 2.71223V23.1052Z" fill="#341A1C"/>
<path fill-rule="evenodd" clip-rule="evenodd" d="M19.9219 7C19.9219 6.74503 19.8236 6.22598 19.5073 5.78432C19.2104 5.36965 18.708 5 17.8191 5C16.6858 5 16.1843 5.39695 15.9367 5.7738C15.6637 6.18914 15.625 6.691 15.625 7H15.4844V4.7708C15.9842 4.30731 16.7348 4 17.8191 4C18.7522 4 19.4378 4.31125 19.9219 4.75253V7Z" fill="#341A1C"/>
<path d="M24 29.5469V16.4687C24 16.1172 23.8359 15.875 23.6719 15.7344C23.5406 15.6219 23.1224 15.3073 22.9297 15.164C22.6797 15.0078 22.4687 15.0156 22.3047 15.2187C22.1406 15.4219 16.1953 22.5 15.9531 22.7969C15.7109 23.0937 15.5469 23.414 15.9531 23.7422C16.3594 24.0703 22.6816 29.4195 23.1172 29.7734C23.6411 30.1991 24 29.9531 24 29.5469Z" fill="#803BFF"/>
<path d="M7.00001 29.5469V16.4687C7.00001 16.1172 7.16407 15.875 7.32813 15.7344C7.45938 15.6219 7.87761 15.3073 8.07032 15.164C8.32032 15.0078 8.53126 15.0156 8.69532 15.2187C8.85938 15.4219 14.8047 22.5 15.0469 22.7969C15.2891 23.0937 15.4531 23.414 15.0469 23.7422C14.6406 24.0703 8.31841 29.4195 7.88282 29.7734C7.35894 30.1991 7.00001 29.9531 7.00001 29.5469Z" fill="#803BFF"/>
</svg>

<svg xmlns="http://www.w3.org/2000/svg" width="32" height="32" fill="none"><path fill="#422426" fill-rule="evenodd" d="M8.36 15.438a169.09 169.09 0 0 0 2.192-1.922c.156-.157.5-.735.5-1.36V4.391c0-.797.442-2.375 2.146-2.375 1.888 0 2.242 1.265 2.294 2.11.052-.845.406-2.11 2.294-2.11 1.704 0 2.146 1.578 2.146 2.375v7.765c0 .625.344 1.203.5 1.36.126.125 1.514 1.333 2.193 1.921l-5.92 8.126c-.864-.292-1.16-1.068-1.213-1.492-.053.424-.349 1.2-1.213 1.491l-5.92-8.125Z" clip-rule="evenodd"/><path fill="#573739" d="M10.552 13.516a169.09 169.09 0 0 1-2.193 1.921l5.92 8.126c.927-.313 1.2-1.183 1.221-1.579V7.391c0-.813-.204-2.375-2.302-2.375-1.704 0-2.145 1.578-2.145 2.375v4.765c0 .625-.345 1.203-.501 1.36Z"/><path fill="#341A1C" fill-rule="evenodd" d="M11.047 7c0-.255.098-.774.414-1.216.297-.414.8-.784 1.689-.784 1.133 0 1.634.397 1.882.774.273.415.312.917.312 1.226h.14V4.77c-.5-.463-1.25-.77-2.334-.77-.934 0-1.62.311-2.103.753V7Z" clip-rule="evenodd"/><path fill="#573739" d="M20.433 13.516c.125.125 1.513 1.333 2.192 1.921l-5.92 8.126c-.926-.313-1.2-1.183-1.22-1.579V7.422c0-.813.203-2.375 2.301-2.375 1.704 0 2.146 1.578 2.146 2.375v4.734c0 .625.344 1.203.5 1.36Z"/><path fill="#341A1C" fill-rule="evenodd" d="M15.984 23.105a1.906 1.906 0 0 1-.492-1.034 1.905 1.905 0 0 1-.508 1.05V2.695c.37.431.481.99.508 1.432.027-.436.134-.985.492-1.414v20.393Z" clip-rule="evenodd"/><path fill="#341A1C" fill-rule="evenodd" d="M19.922 7c0-.255-.098-.774-.415-1.216C19.21 5.37 18.708 5 17.82 5c-1.133 0-1.635.397-1.882.774-.273.415-.312.917-.312 1.226h-.14V4.77c.5-.463 1.25-.77 2.334-.77.933 0 1.619.311 2.103.753V7Z" clip-rule="evenodd"/><path fill="#803BFF" d="M24 29.547V16.469a.947.947 0 0 0-.328-.735c-.131-.112-.55-.427-.742-.57-.25-.156-.461-.148-.625.055-.164.203-6.11 7.281-6.352 7.578-.242.297-.406.617 0 .945.406.328 6.729 5.677 7.164 6.031.524.426.883.18.883-.226ZM7 29.547V16.469c0-.352.164-.594.328-.735.131-.112.55-.427.742-.57.25-.156.461-.148.625.055.164.203 6.11 7.281 6.352 7.578.242.297.406.617 0 .945-.406.328-6.729 5.677-7.164 6.031-.524.426-.883.18-.883-.226Z"/></svg>
